static/assets/images/logos/monochrome/embedd.svg

<svg height="88" width="111" xmlns="http://www.w3.org/2000/svg"><g fill="none"><path d="M79.527 42V32h7.514c2.36 0 4.624.465 6.42 1.298h4.759c2.62 0 5.213.637 6.941 1.765 3.745 2.343 4.839 6.421 4.839 8.995 0 1.996-.777 6.276-4.839 8.88-1.728 1.127-4.32 1.764-6.941 1.764h-4.76C91.666 55.535 89.403 56 87.042 56h-7.514v-9H84v5h5v-5h5v-5h-5v-5h-5v5zm16.81-6.763c2.752 2.546 3.778 6.084 3.778 8.821 0 .955-.204 5.395-3.791 8.706h.887c1.93 0 4.868 0 7.317-1.735 1.296-1.1 3.34-3.327 3.34-7.058 0-2.835-1.41-5.467-3.629-7.086-1.9-1.244-3.888-1.648-7.028-1.648zm-52.042-1.939h2.016v7.662h.058c1.785-2.575 4.435-3.182 6.135-3.182 5.156 0 8.468 4.05 8.468 8.272 0 4.541-3.514 8.33-8.468 8.33-1.642 0-4.378-.578-6.135-3.153h-.058v2.777h-2.016zm8.209 6.302c-3.63 0-6.308 3.037-6.308 6.508 0 3.702 2.91 6.45 6.308 6.45 3.86 0 6.452-2.892 6.452-6.421 0-4.02-2.996-6.537-6.452-6.537zm12.066 7.231c.144 3.095 3.025 5.727 6.106 5.727 2.88-.058 4.926-1.764 5.646-3.731h2.131c-1.094 3.152-4.118 5.553-7.748 5.553-4.406 0-8.209-3.586-8.209-8.272 0-4.483 3.6-8.243 8.18-8.33a8.181 8.181 0 0 1 7.029 4.05c1.065 1.706 1.295 3.47 1.209 5.003zm12.3-1.822c-.636-3.731-3.66-5.409-6.166-5.409-2.477 0-5.559 1.678-6.135 5.409z" fill="#000000"/><path d="M2.074 46.831c.144 3.095 3.024 5.727 6.106 5.727 2.88-.058 4.925-1.764 5.646-3.731h2.13c-1.094 3.152-4.118 5.553-7.747 5.553C3.802 54.38 0 50.794 0 46.108c0-4.483 3.6-8.243 8.18-8.33a8.181 8.181 0 0 1 7.028 4.05c1.066 1.706 1.296 3.47 1.21 5.003zm12.299-1.822c-.634-3.731-3.658-5.409-6.164-5.409-2.477 0-5.56 1.678-6.135 5.409zm4.002-6.826h2.016v1.822l-.058-.058v.058h.058c.893-1.562 2.823-2.227 4.292-2.227 1.324 0 4.118.607 5.3 3.037 1.18-2.43 3.974-3.037 5.3-3.037 2.418 0 6.307 1.446 6.307 6.826v9.4h-2.016v-9.169c0-1.735-.317-2.574-.72-3.297-.664-1.128-1.874-1.938-3.572-1.938-1.7 0-2.91.81-3.572 1.938-.403.723-.72 1.562-.72 3.297v9.17h-2.016v-9.17c0-1.735-.317-2.574-.72-3.297-.662-1.128-1.872-1.938-3.571-1.938-1.7 0-2.91.81-3.572 1.938-.403.723-.72 1.562-.72 3.297v9.17h-2.016V38.182z" fill="#000000"/></g></svg>

<?xml version="1.0" encoding="UTF-8" standalone="no"?>
<!DOCTYPE svg PUBLIC "-//W3C//DTD SVG 1.1//EN" "http://www.w3.org/Graphics/SVG/1.1/DTD/svg11.dtd">
<svg viewBox="0 0 110 24" version="1.1" xmlns="http://www.w3.org/2000/svg" xmlns:xlink="http://www.w3.org/1999/xlink" xml:space="preserve" xmlns:serif="http://www.serif.com/" style="fill-rule:evenodd;clip-rule:evenodd;stroke-linejoin:round;stroke-miterlimit:2;">
    <g transform="matrix(1,0,0,1,0,-32)">
        <g>
            <path d="M79.527,42L79.527,32L87.041,32C89.401,32 91.665,32.465 93.461,33.298L98.22,33.298C100.84,33.298 103.433,33.935 105.161,35.063C108.906,37.406 110,41.484 110,44.058C110,46.054 109.223,50.334 105.161,52.938C103.433,54.065 100.841,54.702 98.22,54.702L93.46,54.702C91.666,55.535 89.403,56 87.042,56L79.528,56L79.528,47L84,47L84,52L89,52L89,47L94,47L94,42L89,42L89,37L84,37L84,42L79.527,42ZM96.337,35.237C99.089,37.783 100.115,41.321 100.115,44.058C100.115,45.013 99.911,49.453 96.324,52.764L97.211,52.764C99.141,52.764 102.079,52.764 104.528,51.029C105.824,49.929 107.868,47.702 107.868,43.971C107.868,41.136 106.458,38.504 104.239,36.885C102.339,35.641 100.351,35.237 97.211,35.237L96.337,35.237ZM44.295,33.298L46.311,33.298L46.311,40.96L46.369,40.96C48.154,38.385 50.804,37.778 52.504,37.778C57.66,37.778 60.972,41.828 60.972,46.05C60.972,50.591 57.458,54.38 52.504,54.38C50.862,54.38 48.126,53.802 46.369,51.227L46.311,51.227L46.311,54.004L44.295,54.004L44.295,33.298ZM52.504,39.6C48.874,39.6 46.196,42.637 46.196,46.108C46.196,49.81 49.106,52.558 52.504,52.558C56.364,52.558 58.956,49.666 58.956,46.137C58.956,42.117 55.96,39.6 52.504,39.6ZM64.57,46.831C64.714,49.926 67.595,52.558 70.676,52.558C73.556,52.5 75.602,50.794 76.322,48.827L78.453,48.827C77.359,51.979 74.335,54.38 70.705,54.38C66.299,54.38 62.496,50.794 62.496,46.108C62.496,41.625 66.096,37.865 70.676,37.778C73.567,37.789 76.245,39.333 77.705,41.828C78.77,43.534 79,45.298 78.914,46.831L64.57,46.831ZM76.87,45.009C76.234,41.278 73.21,39.6 70.704,39.6C68.227,39.6 65.145,41.278 64.569,45.009L76.87,45.009Z" style="fill-rule:nonzero;"/>
            <path d="M2.074,46.831C2.218,49.926 5.098,52.558 8.18,52.558C11.06,52.5 13.105,50.794 13.826,48.827L15.956,48.827C14.862,51.979 11.838,54.38 8.209,54.38C3.802,54.38 0,50.794 0,46.108C0,41.625 3.6,37.865 8.18,37.778C11.071,37.79 13.748,39.333 15.208,41.828C16.274,43.534 16.504,45.298 16.418,46.831L2.074,46.831ZM14.373,45.009C13.739,41.278 10.715,39.6 8.209,39.6C5.732,39.6 2.649,41.278 2.074,45.009L14.373,45.009ZM18.375,38.183L20.391,38.183L20.391,40.005L20.333,39.947L20.333,40.005L20.391,40.005C21.284,38.443 23.214,37.778 24.683,37.778C26.007,37.778 28.801,38.385 29.983,40.815C31.163,38.385 33.957,37.778 35.283,37.778C37.701,37.778 41.59,39.224 41.59,44.604L41.59,54.004L39.574,54.004L39.574,44.835C39.574,43.1 39.257,42.261 38.854,41.538C38.19,40.41 36.98,39.6 35.282,39.6C33.582,39.6 32.372,40.41 31.71,41.538C31.307,42.261 30.99,43.1 30.99,44.835L30.99,54.005L28.974,54.005L28.974,44.835C28.974,43.1 28.657,42.261 28.254,41.538C27.592,40.41 26.382,39.6 24.683,39.6C22.983,39.6 21.773,40.41 21.111,41.538C20.708,42.261 20.391,43.1 20.391,44.835L20.391,54.005L18.375,54.005L18.375,38.182L18.375,38.183Z" style="fill-rule:nonzero;"/>
        </g>
    </g>
</svg>
